!!!OTL: 1525. Bergmanns Preislied.
!!!ARE: Europa, Mitteleuropa, Deutschland, Hessen, Hennethal; Westfalen ?
!!!SCT: E1525
!!!TXL: @@DE
!!!YEM: Copyright 1995, estate of Helmut Schaffrath.
**kern	**text
*ICvox	*
*M6/8	*
*k[f#]	*
*G:	*
!LO:TX:a:t=Gewichtig.	!
!LO:TX:a:t=Aus Hennethal. Weſtfalen?	!
{8d	Der
=1	=1
4g	Bergmann
8b	.
4dd	iſt
16ddL	ein
16ggJ	.
=2	=2
8b	e-
8b	-del
8dd	Ge-
4g}	-ʒier
{8b	wohl
=3	=3
8a/L	hier
8eeJ	.
8dd	auf
4cc	die-
8f#	-ſer
=4	=4
4.g	Erd
4r}	.
{8d	Er
=5	=5
4g	bringt
8b	das
4dd	Gold
16ddL	und
16ggJ	.
=6	=6
8b	Sil-
8b	-ber
8dd	her-
4g}	-für,
{8b	wie
=7	=7
8a/L	es
8eeJ	.
8dd	ge-
4cc	-ſchrie-
8f#	-ben
=8	=8
4.g	ſteht.
4r}	.
{8g	Mit
=9	=9
(4a	Schlä-
8b)	.
4cc	-gel
8dd	und
=10	=10
(4b	Ei-
8dd)	.
4g}	-ſen,
{8b	das
=11	=11
4a	muß
8b	man
4cc	ihm
8a	be-
=12	=12
(4b	-wei-
8dd)	.
4g}	-ſen,
{8d	man
=13	=13
8g	könn-
8g	-te
8b	nicht
8dd	ſpre-
8dd	-chen
8gg	mit
=14	=14
8b	ihm
8b	von
8dd	der
8g	Ʒe-
8a}	-chen,
{8b	wenn
=15	=15
8a/L	kei-
8eeJ	.
8dd	-ne
4cc	Berg-
8f#	-leut
=16	=16
4.g	wärn
4r}	.
{8gg	Glück
=17	=17
4.dd;	auf!
4b	Es
8b	kommt
=18	=18
8a	Al-
8ee	-les
8dd	vom
4cc	Bergmann
8f#	.
=19	=19
4.g	her.
4r}	.
==	==
!!!AGN: Staende -, Bergmanns - Lied
!!!ONB: ESAC (Essen Associative Code) Database: ERK3
!!!AMT: compound duple
!!!AIN: vox
!!!EED: Helmut Schaffrath
!!!EEV: 1.0
!!!GTL: Staendelieder (Berufslieder). 5. Bergmannslieder.
!!!URL-scan: https://rosdok.uni-rostock.de/mcrviewer/recordIdentifier/rosdok_ppn745177999/iview2/phys_0371.iview2?x=-128.77276441889285&y=1084.8298749856185&scale=0.5870222003877487&rotation=0&layout=singlePageLayout
!!!ENC: Anna Maria Matuszewska
!!!EEV: 2025/03/01
*-	*-
